svg/sport/swimming_pool_fill.svg

<?xml version="1.0" encoding="UTF-8"?>
<svg width="24px" height="24px" viewBox="0 0 24 24" version="1.1" xmlns="http://www.w3.org/2000/svg" xmlns:xlink="http://www.w3.org/1999/xlink">
    <title>swimming_pool_fill</title>
    <g id="Icon" stroke="none" stroke-width="1" fill="none" fill-rule="evenodd">
        <g id="Sport" transform="translate(-816.000000, -48.000000)">
            <g id="swimming_pool_fill" transform="translate(816.000000, 48.000000)">
                <path d="M24,0 L24,24 L0,24 L0,0 L24,0 Z M12.5935,23.2578 L12.5819,23.2595 L12.5109,23.295 L12.4919,23.2987 L12.4767,23.295 L12.4057,23.2595 C12.3958,23.2564 12.387,23.259 12.3821,23.2649 L12.378,23.2758 L12.3609,23.7031 L12.3659,23.7235 L12.3769,23.7357 L12.4805,23.8097 L12.4953,23.8136 L12.5071,23.8097 L12.6107,23.7357 L12.6233,23.7197 L12.6267,23.7031 L12.6096,23.2758 C12.6076,23.2657 12.601,23.2593 12.5935,23.2578 Z M12.8584,23.1453 L12.8445,23.1473 L12.6598,23.2397 L12.6499,23.2499 L12.6472,23.2611 L12.6651,23.6906 L12.6699,23.7034 L12.6784,23.7105 L12.8793,23.8032 C12.8914,23.8069 12.9022,23.803 12.9078,23.7952 L12.9118,23.7812 L12.8777,23.1665 C12.8753,23.1546 12.8674,23.147 12.8584,23.1453 Z M12.143,23.1473 C12.1332,23.1424 12.1222,23.1453 12.1156,23.1526 L12.1099,23.1665 L12.0758,23.7812 C12.0751,23.7927 12.0828,23.8019 12.0926,23.8046 L12.1083,23.8032 L12.3092,23.7105 L12.3186,23.7024 L12.3225,23.6906 L12.3404,23.2611 L12.3372,23.2485 L12.3278,23.2397 L12.143,23.1473 Z" id="MingCute" fill-rule="nonzero"></path>
                <path d="M19.063,17.8287 C19.7099,17.3112 20.6538,17.4161 21.1714,18.063 C21.6565562,18.6694687 21.5946812,19.5369727 21.0520226,20.0694485 L20.9371,20.1713 L19.5791,21.2577 C18.064,22.4698 16.3441,22.0321 14.8848,21.0593 C14.7037,20.9385 14.4652,20.9489 14.2951,21.0849 C12.9341,22.1737 11.076,22.1817 9.70498,21.0849 C9.53496,20.9489 9.29646,20.9385 9.11529,21.0593 C7.71007667,21.9960704 6.06319102,22.4366438 4.59020459,21.3856451 L4.42104,21.2577 L3.06301,20.1713 C2.41612,19.6538 2.31124,18.7099 2.82875,18.063 C3.313925,17.4565312 4.17387441,17.3264297 4.81250205,17.7389429 L4.9371,17.8287 L6.29513,18.9151 C6.44086143,19.0316714 6.63691204,19.0559653 6.80403566,18.9844551 L6.88482,18.9407 L7.45119,18.5631 C8.78346,17.675 10.4658,17.8517 11.6877,18.8292 C11.8703,18.9753 12.1298,18.9753 12.3124,18.8292 C13.4811739,17.8942 15.0712749,17.691879 16.3732154,18.4532777 L16.5489,18.5631 L17.1153,18.9407 C17.2706143,19.0442429 17.4680265,19.0513939 17.6283157,18.9656796 L17.705,18.9151 L19.063,17.8287 Z M18.5001,2.5 C20.7092,2.5 22.5001,4.29086 22.5001,6.5 C22.5001,7.32843 21.8285,8 21.0001,8 C20.2203353,8 19.5796433,7.40511446 19.5069659,6.64446046 L19.5001,6.5 C19.5001,5.94772 19.0523,5.5 18.5001,5.5 C17.9478,5.5 17.5001,5.94772 17.5001,6.5 L17.5001,15 C17.5001,15.0137667 17.5203333,15.0109444 17.5481556,15.0003889 L17.6417444,14.9543778 L17.6417444,14.9543778 L17.705,14.9151 L17.705,14.9151 L19.063,13.8287 C19.7099,13.3112 20.6538,13.4161 21.1714,14.063 C21.6889,14.7099 21.584,15.6538 20.9371,16.1713 L19.5791,17.2577 C18.3889,18.2099 16.7194,18.2823 15.4512,17.4369 L14.8848,17.0593 C14.7037,16.9385 14.4652,16.9489 14.2951,17.0849 C12.9883,18.1304 11.1534,18.2436 9.81362,17.1718 C9.49406667,16.9161333 9.22497556,16.9948222 8.95677037,17.1585926 L8.79555696,17.2650704 L8.79555696,17.2650704 L8.63217651,17.3800026 C8.60463364,17.3991978 8.57690133,17.4182467 8.54893,17.4369 C7.28074,18.2823 5.61122,18.2099 4.42104,17.2577 L3.06301,16.1713 C2.41612,15.6538 2.31124,14.7099 2.82875,14.063 C3.34627,13.4161 4.2902,13.3112 4.9371,13.8287 L5.50006,14.2791 L5.50006,6.5 C5.50006,4.29086 7.29092,2.5 9.50006,2.5 C11.7092,2.5 13.5001,4.29086 13.5001,6.5 C13.5001,7.32843 12.8285,8 12.0001,8 C11.2203353,8 10.5796433,7.40511446 10.5069659,6.64446046 L10.5001,6.5 C10.5001,5.94772 10.0523,5.5 9.50006,5.5 C8.94777,5.5 8.50006,5.94772 8.50006,6.5 L8.50006,9.5 L14.5001,9.5 L14.5001,6.5 C14.5001,4.29086 16.2909,2.5 18.5001,2.5 Z M14.5001,12.5 L8.50006,12.5 L8.50006,14.0908 C9.63905,13.7906 10.7828,14.1052 11.6877,14.8292 C11.8703,14.9753 12.1298,14.9753 12.3124,14.8292 C12.9455,14.3227 13.6807,14.0021 14.5001,13.977 L14.5001,12.5 Z" id="形状" fill="#09244B"></path>
            </g>
        </g>
    </g>
</svg>

<svg xmlns="http://www.w3.org/2000/svg" width="24" height="24"><g fill="none" fill-rule="evenodd"><path d="M24 0v24H0V0h24ZM12.594 23.258l-.012.002-.071.035-.02.004-.014-.004-.071-.036c-.01-.003-.019 0-.024.006l-.004.01-.017.428.005.02.01.013.104.074.015.004.012-.004.104-.074.012-.016.004-.017-.017-.427c-.002-.01-.009-.017-.016-.018Zm.264-.113-.014.002-.184.093-.01.01-.003.011.018.43.005.012.008.008.201.092c.012.004.023 0 .029-.008l.004-.014-.034-.614c-.003-.012-.01-.02-.02-.022Zm-.715.002a.023.023 0 0 0-.027.006l-.006.014-.034.614c0 .012.007.02.017.024l.015-.002.201-.093.01-.008.003-.011.018-.43-.003-.012-.01-.01-.184-.092Z"/><path fill="#09244B" d="M19.063 17.829a1.5 1.5 0 0 1 1.989 2.24l-.115.102-1.358 1.087c-1.515 1.212-3.235.774-4.694-.199a.5.5 0 0 0-.59.026c-1.36 1.089-3.219 1.097-4.59 0a.5.5 0 0 0-.59-.026c-1.405.937-3.052 1.378-4.525.327l-.169-.128-1.358-1.087a1.5 1.5 0 0 1 1.75-2.432l.124.09 1.358 1.086a.5.5 0 0 0 .509.07l.08-.044.567-.378c1.332-.888 3.015-.711 4.237.266a.5.5 0 0 0 .624 0c1.17-.935 2.76-1.137 4.061-.376l.176.11.566.378a.5.5 0 0 0 .513.025l.077-.05 1.358-1.087ZM18.5 2.5a4 4 0 0 1 4 4 1.5 1.5 0 0 1-2.993.144L19.5 6.5a1 1 0 0 0-2 0V15c0 .014.02.01.048 0l.094-.046.063-.039 1.358-1.086a1.5 1.5 0 0 1 1.874 2.342l-1.358 1.087a3.5 3.5 0 0 1-4.128.179l-.566-.378a.5.5 0 0 0-.59.026c-1.307 1.045-3.142 1.159-4.481.087-.32-.256-.589-.177-.857-.013l-.161.106-.164.115c-.027.02-.055.038-.083.057a3.5 3.5 0 0 1-4.128-.18l-1.358-1.086a1.5 1.5 0 1 1 1.874-2.342l.563.45V6.5a4 4 0 1 1 8 0 1.5 1.5 0 0 1-2.993.144L10.5 6.5a1 1 0 0 0-2 0v3h6v-3a4 4 0 0 1 4-4Zm-4 10h-6v1.59c1.139-.3 2.283.015 3.188.74a.5.5 0 0 0 .624 0c.633-.507 1.369-.828 2.188-.853V12.5Z"/></g></svg>
